MonoIcons/scalable/status/mail-unread-symbolic.svg

<?xml version="1.0" encoding="UTF-8"?>
<svg height="16px" viewBox="0 0 16 16" width="16px" xmlns="http://www.w3.org/2000/svg">
    <g fill="#2e3436">
        <path d="m 1.800781 3.019531 c -0.257812 0.050781 -0.484375 0.207031 -0.632812 0.425781 c -0.304688 0.460938 -0.183594 1.082032 0.277343 1.386719 l 5.167969 3.445313 c 0.835938 0.558594 1.9375 0.558594 2.773438 0 l 5.167969 -3.445313 c 0.460937 -0.304687 0.582031 -0.925781 0.277343 -1.386719 c -0.304687 -0.460937 -0.925781 -0.582031 -1.386719 -0.277343 l -5.167968 3.445312 c -0.171875 0.113281 -0.382813 0.113281 -0.554688 0 l -5.167968 -3.445312 c -0.222657 -0.148438 -0.492188 -0.199219 -0.753907 -0.148438 z m 0 0"/>
        <path d="m 3 2 c -1.644531 0 -3 1.355469 -3 3 v 6 c 0 1.644531 1.355469 3 3 3 h 10 c 1.644531 0 3 -1.355469 3 -3 v -6 c 0 -1.644531 -1.355469 -3 -3 -3 z m 0 2 h 10 c 0.570312 0 1 0.429688 1 1 v 6 c 0 0.570312 -0.429688 1 -1 1 h -10 c -0.570312 0 -1 -0.429688 -1 -1 v -6 c 0 -0.570312 0.429688 -1 1 -1 z m 0 0"/>
    </g>
</svg>

<svg width="16" height="16" viewBox="0 0 16 16" fill="none" xmlns="http://www.w3.org/2000/svg">
<path d="M1.80075 3.0195C1.54294 3.07028 1.31637 3.22653 1.16794 3.44528C0.863248 3.90622 0.984342 4.52731 1.44528 4.832L6.61325 8.27731C7.44919 8.8359 8.55075 8.8359 9.38669 8.27731L14.5547 4.832C15.0156 4.52731 15.1367 3.90622 14.832 3.44528C14.5273 2.98434 13.9062 2.86325 13.4453 3.16794L8.27731 6.61325C8.10544 6.72653 7.8945 6.72653 7.72262 6.61325L2.55465 3.16794C2.332 3.0195 2.06247 2.96872 1.80075 3.0195V3.0195Z" fill="#2E3436"/>
<path d="M3 2C1.35547 2 0 3.35547 0 5V11C0 12.6445 1.35547 14 3 14H13C14.6445 14 16 12.6445 16 11V5C16 3.35547 14.6445 2 13 2H3ZM3 4H13C13.5703 4 14 4.42969 14 5V11C14 11.5703 13.5703 12 13 12H3C2.42969 12 2 11.5703 2 11V5C2 4.42969 2.42969 4 3 4Z" fill="#2E3436"/>
</svg>
